; generated by PrusaSlicer 2.3.0+win64 on 2021-02-22 at 13:01:16 UTC

; 

; external perimeters extrusion width = 0.45mm
; perimeters extrusion width = 0.45mm
; infill extrusion width = 0.45mm
; solid infill extrusion width = 0.45mm
; top infill extrusion width = 0.40mm
; first layer extrusion width = 0.42mm

M73 P0 R60
M73 Q0 S60
M201 X1000 Y1000 Z200 E5000 ; sets maximum accelerations, mm/sec^2
M203 X200 Y200 Z12 E120 ; sets maximum feedrates, mm/sec
M204 P1250 R1250 T1250 ; sets acceleration (P, T) and retract acceleration (R), mm/sec^2
M205 X8.00 Y8.00 Z0.40 E4.50 ; sets the jerk limits, mm/sec
M205 S0 T0 ; sets the minimum extruding and travel feed rate, mm/sec
M107
;TYPE:Custom
M862.3 P "MK3S" ; printer model check
M862.1 P0.4 ; nozzle diameter check
M115 U3.9.2 ; tell printer latest fw version
G90 ; use absolute coordinates
M83 ; extruder relative mode
M104 S215 ; set extruder temp
M140 S60 ; set bed temp
M190 S60 ; wait for bed temp
M109 S215 ; wait for extruder temp
G28 W ; home all without mesh bed level
G80 ; mesh bed leveling
G1 Y-3.0 F1000.0 ; go outside print area
G92 E0.0
G1 X60.0 E9.0 F1000.0 ; intro line
G1 X100.0 E12.5 F1000.0 ; intro line
G92 E0.0
M221 S95

; Don't change E values below. Excessive value can damage the printer.

M907 E538 ; set extruder motor current
G21 ; set units to millimeters
G90 ; use absolute coordinates
M83 ; use relative distances for extrusion
M900 K0.05 ; Filament gcode LA 1.5
M900 K30 ; Filament gcode LA 1.0
;LAYER_CHANGE
;Z:0.2
;HEIGHT:0.2
;BEFORE_LAYER_CHANGE
G92 E0.0
;0.2


G1 E-0.80000 F2100.000
G1 Z0.400 F10800.000
;AFTER_LAYER_CHANGE
;0.2
G1 X23.861 Y54.775
G1 Z0.200
G1 E0.80000 F2100.000
M204 S1000
;TYPE:Skirt
;WIDTH:0.42
G1 F1200.000
G1 X25.396 Y54.120 E0.05232
G1 X26.906 Y53.649 E0.04960
G1 X28.539 Y53.327 E0.05220
G1 X30.092 Y53.181 E0.04889
G1 X126.093 Y53.170 E3.01006
G1 X225.358 Y58.673 E3.11716
G1 X226.995 Y58.930 E0.05196
G1 X228.526 Y59.330 E0.04960
G1 X230.081 Y59.923 E0.05220
G1 X231.469 Y60.618 E0.04865
G1 X232.894 Y61.536 E0.05315
G1 X234.107 Y62.503 E0.04865
G1 X234.951 Y63.310 E0.03661
G1 X236.007 Y64.523 E0.05041
G1 X236.909 Y65.790 E0.04877
G1 X237.460 Y66.727 E0.03411
G1 X238.373 Y68.742 E0.06936
G1 X238.989 Y70.863 E0.06924
G1 X239.180 Y71.934 E0.03410
G1 X239.321 Y73.532 E0.05029
G1 X240.990 Y177.577 E3.26269
G1 X240.903 Y179.122 E0.04851
G1 X240.654 Y180.731 E0.05103
G1 X240.090 Y182.732 E0.06519
G1 X239.428 Y184.301 E0.05339
G1 X238.651 Y185.718 E0.05068
G1 X237.431 Y187.416 E0.06555
G1 X236.276 Y188.662 E0.05327
G1 X235.092 Y189.705 E0.04948
G1 X233.253 Y190.956 E0.06972
G1 X232.294 Y191.468 E0.03411
G1 X230.807 Y192.100 E0.05065
G1 X229.338 Y192.561 E0.04829
G1 X228.272 Y192.796 E0.03422
G1 X226.043 Y193.042 E0.07031
G1 X28.877 Y194.676 E6.18220
M73 P0 R59
M73 Q0 S59
G1 X27.274 Y194.597 E0.05034
G1 X25.217 Y194.245 E0.06543
G1 X23.590 Y193.754 E0.05327
G1 X22.116 Y193.139 E0.05008
G1 X20.662 Y192.335 E0.05208
G1 X19.325 Y191.407 E0.05103
G1 X17.768 Y190.018 E0.06543
G1 X16.659 Y188.752 E0.05280
G1 X15.757 Y187.484 E0.04877
G1 X15.203 Y186.543 E0.03422
G1 X14.278 Y184.492 E0.07055
G1 X13.940 Y183.458 E0.03410
G1 X13.575 Y181.877 E0.05089
G1 X13.377 Y180.350 E0.04829
G1 X13.330 Y179.179 E0.03673
G1 X15.244 Y67.738 E3.49467
M73 P1 R59
M73 Q1 S59
G1 X15.546 Y65.505 E0.07067
G1 X15.808 Y64.445 E0.03422
G1 X16.330 Y62.924 E0.05041
G1 X16.974 Y61.517 E0.04853
G1 X17.510 Y60.570 E0.03411
G1 X18.774 Y58.802 E0.06817
G1 X19.927 Y57.558 E0.05315
G1 X21.117 Y56.510 E0.04972
G1 X22.482 Y55.551 E0.05232
G1 X23.809 Y54.805 E0.04772
; printing object cap_final1.stl id:0 copy 0
;WIPE_START
G1 F8640.000
G1 X25.396 Y54.120 E-0.39908
G1 X26.888 Y53.654 E-0.36092
;WIPE_END
G1 E-0.04000 F2100.000
G1 Z0.600 F10800.000
G1 X114.249 Y67.180
G1 Z0.200
G1 E0.80000 F2100.000
;TYPE:Perimeter
G1 F1200.000
G1 X114.383 Y66.357 E0.02615
G1 X114.575 Y65.543 E0.02620
G1 X114.799 Y64.818 E0.02381
G1 X115.127 Y63.967 E0.02858
G1 X115.483 Y63.212 E0.02616
G1 X115.853 Y62.549 E0.02381
G1 X116.350 Y61.785 E0.02858
G1 X116.856 Y61.121 E0.02616
G1 X117.356 Y60.549 E0.02381
G1 X118.001 Y59.905 E0.02858
G1 X118.633 Y59.361 E0.02616
G1 X119.241 Y58.906 E0.02381
G1 X120.006 Y58.410 E0.02858
G1 X120.737 Y58.009 E0.02615
G1 X121.496 Y57.659 E0.02620
G1 X122.206 Y57.390 E0.02381
G1 X123.078 Y57.124 E0.02858
G1 X123.891 Y56.940 E0.02615
G1 X124.717 Y56.813 E0.02620
G1 X125.474 Y56.749 E0.02381
G1 X126.386 Y56.734 E0.02858
G1 X127.219 Y56.782 E0.02616
G1 X127.972 Y56.877 E0.02381
G1 X128.867 Y57.051 E0.02858
G1 X129.671 Y57.271 E0.02615
G1 X130.460 Y57.547 E0.02620
G1 X131.158 Y57.846 E0.02381
G1 X131.970 Y58.260 E0.02858
G1 X132.683 Y58.693 E0.02615
G1 X133.365 Y59.176 E0.02620
G1 X133.954 Y59.655 E0.02381
G1 X134.620 Y60.277 E0.02858
G1 X135.186 Y60.891 E0.02616
G1 X135.663 Y61.482 E0.02381
G1 X136.185 Y62.229 E0.02858
G1 X136.611 Y62.946 E0.02615
G1 X136.987 Y63.693 E0.02620
G1 X137.281 Y64.393 E0.02381
G1 X137.578 Y65.255 E0.02858
G1 X137.790 Y66.062 E0.02616
G1 X137.932 Y66.808 E0.02381
G1 X138.043 Y67.711 E0.02852
G1 X138.084 Y68.705 E0.03120
G1 X138.064 Y69.379 E0.02114
G1 X137.995 Y70.137 E0.02387
G1 X137.852 Y71.038 E0.02858
G1 X137.660 Y71.850 E0.02616
G1 X137.436 Y72.575 E0.02381
G1 X137.109 Y73.426 E0.02858
G1 X136.753 Y74.181 E0.02616
G1 X136.382 Y74.844 E0.02381
G1 X135.885 Y75.608 E0.02858
G1 X135.380 Y76.272 E0.02615
G1 X134.829 Y76.900 E0.02620
G1 X134.290 Y77.435 E0.02381
G1 X133.602 Y78.033 E0.02858
G1 X132.933 Y78.531 E0.02615
G1 X132.230 Y78.983 E0.02620
G1 X131.565 Y79.349 E0.02381
G1 X130.739 Y79.734 E0.02858
G1 X129.958 Y80.029 E0.02616
G1 X129.231 Y80.249 E0.02381
G1 X128.343 Y80.453 E0.02858
G1 X127.518 Y80.580 E0.02616
G1 X126.761 Y80.644 E0.02381
G1 X125.850 Y80.659 E0.02858
G1 X125.017 Y80.611 E0.02616
G1 X124.263 Y80.517 E0.02381
G1 X123.369 Y80.342 E0.02858
G1 X122.564 Y80.122 E0.02615
G1 X121.775 Y79.846 E0.02620
G1 X121.077 Y79.547 E0.02381
G1 X120.265 Y79.133 E0.02858
G1 X119.552 Y78.700 E0.02615
G1 X118.870 Y78.217 E0.02620
G1 X118.281 Y77.738 E0.02381
G1 X117.615 Y77.116 E0.02858
G1 X117.049 Y76.503 E0.02616
G1 X116.573 Y75.911 E0.02381
G1 X116.051 Y75.164 E0.02858
G1 X115.624 Y74.446 E0.02616
G1 X115.282 Y73.769 E0.02381
G1 X114.926 Y72.929 E0.02858
G1 X114.658 Y72.139 E0.02616
G1 X114.464 Y71.405 E0.02381
G1 X114.290 Y70.510 E0.02858
G1 X114.193 Y69.682 E0.02615
G1 X114.153 Y68.847 E0.02620
G1 X114.169 Y68.088 E0.02381
G1 X114.243 Y67.240 E0.02670
G1 X113.868 Y67.206 F10800.000
;TYPE:External perimeter
G1 F1200.000
G1 X114.013 Y66.283 E0.02931
G1 X114.211 Y65.444 E0.02702
G1 X114.443 Y64.694 E0.02461
G1 X114.780 Y63.819 E0.02942
G1 X115.147 Y63.040 E0.02700
G1 X115.530 Y62.354 E0.02461
G1 X116.042 Y61.568 E0.02942
G1 X116.563 Y60.883 E0.02700
G1 X117.080 Y60.292 E0.02461
G1 X117.744 Y59.629 E0.02942
G1 X118.397 Y59.067 E0.02700
G1 X119.025 Y58.596 E0.02461
G1 X119.812 Y58.086 E0.02942
G1 X120.567 Y57.672 E0.02700
G1 X121.350 Y57.312 E0.02702
G1 X122.084 Y57.033 E0.02461
G1 X122.981 Y56.759 E0.02942
G1 X123.821 Y56.569 E0.02700
G1 X124.673 Y56.439 E0.02702
G1 X125.455 Y56.372 E0.02461
G1 X126.393 Y56.357 E0.02942
G1 X127.253 Y56.406 E0.02700
G1 X128.032 Y56.504 E0.02461
G1 X128.953 Y56.684 E0.02942
G1 X129.783 Y56.911 E0.02700
G1 X130.597 Y57.195 E0.02702
G1 X131.318 Y57.504 E0.02461
G1 X132.154 Y57.930 E0.02942
G1 X132.890 Y58.378 E0.02700
G1 X133.594 Y58.875 E0.02702
G1 X134.202 Y59.371 E0.02461
G1 X134.888 Y60.011 E0.02942
G1 X135.472 Y60.644 E0.02700
G1 X135.964 Y61.256 E0.02461
G1 X136.502 Y62.025 E0.02942
G1 X136.942 Y62.765 E0.02700
G1 X137.329 Y63.535 E0.02702
G1 X137.634 Y64.258 E0.02461
G1 X137.939 Y65.145 E0.02942
G1 X138.158 Y65.978 E0.02700
G1 X138.305 Y66.749 E0.02461
G1 X138.419 Y67.680 E0.02940
G1 X138.461 Y68.703 E0.03210
G1 X138.441 Y69.402 E0.02192
G1 X138.370 Y70.184 E0.02463
G1 X138.222 Y71.111 E0.02942
G1 X138.024 Y71.949 E0.02700
G1 X137.793 Y72.699 E0.02461
G1 X137.456 Y73.575 E0.02942
G1 X137.088 Y74.353 E0.02700
G1 X136.705 Y75.039 E0.02461
G1 X136.194 Y75.825 E0.02942
G1 X135.672 Y76.510 E0.02700
G1 X135.104 Y77.158 E0.02702
G1 X134.547 Y77.711 E0.02461
G1 X133.839 Y78.326 E0.02942
G1 X133.148 Y78.841 E0.02700
G1 X132.423 Y79.307 E0.02702
G1 X131.736 Y79.686 E0.02461
G1 X130.885 Y80.082 E0.02942
G1 X130.080 Y80.386 E0.02700
G1 X129.328 Y80.614 E0.02461
G1 X128.414 Y80.824 E0.02942
G1 X127.563 Y80.955 E0.02700
G1 X126.780 Y81.021 E0.02461
G1 X125.842 Y81.036 E0.02942
G1 X124.982 Y80.987 E0.02700
G1 X124.204 Y80.889 E0.02461
G1 X123.283 Y80.709 E0.02942
G1 X122.452 Y80.483 E0.02700
G1 X121.639 Y80.198 E0.02702
G1 X120.917 Y79.889 E0.02461
G1 X120.081 Y79.463 E0.02942
G1 X119.345 Y79.016 E0.02700
G1 X118.642 Y78.518 E0.02702
G1 X118.033 Y78.022 E0.02461
G1 X117.348 Y77.382 E0.02942
G1 X116.763 Y76.749 E0.02700
G1 X116.271 Y76.137 E0.02461
G1 X115.734 Y75.368 E0.02942
G1 X115.294 Y74.628 E0.02700
G1 X114.939 Y73.928 E0.02461
G1 X114.573 Y73.064 E0.02942
G1 X114.297 Y72.248 E0.02700
G1 X114.096 Y71.489 E0.02461
G1 X113.918 Y70.568 E0.02942
G1 X113.817 Y69.713 E0.02700
G1 X113.776 Y68.852 E0.02702
G1 X113.792 Y68.067 E0.02461
G1 X113.863 Y67.266 E0.02522
G1 X114.236 Y67.050 F10800.000
;WIPE_START
G1 F8640.000
G1 X114.013 Y66.283 E-0.22968
G1 X114.211 Y65.444 E-0.19897
G1 X114.443 Y64.694 E-0.18125
G1 X114.676 Y64.088 E-0.15010
;WIPE_END
G1 E-0.04000 F2100.000
G1 Z0.600 F10800.000
G1 X135.766 Y61.827
G1 Z0.200
G1 E0.80000 F2100.000
;TYPE:Solid infill
;WIDTH:0.425857
G1 F1200.000
G1 X134.359 Y60.420 E0.06336
G1 X133.768 Y59.869 E0.02574
G1 X133.194 Y59.401 E0.02357
G1 X132.528 Y58.930 E0.02599
G1 X132.015 Y58.618 E0.01910
G1 X136.192 Y62.795 E0.18810
G1 X136.363 Y63.082 E0.01062
G1 X136.776 Y63.920 E0.02975
G1 X130.897 Y58.041 E0.26474
G1 X130.358 Y57.811 E0.01866
G1 X129.999 Y57.685 E0.01211
G1 X137.127 Y64.813 E0.32097
G1 X137.307 Y65.337 E0.01764
G1 X137.377 Y65.605 E0.00883
G1 X129.210 Y57.438 E0.36775
G1 X128.802 Y57.327 E0.01347
G1 X128.498 Y57.267 E0.00988
G1 X137.551 Y66.320 E0.40766
G1 X137.668 Y66.979 E0.02130
G1 X127.833 Y57.144 E0.44287
G1 X127.214 Y57.066 E0.01988
G1 X137.744 Y67.596 E0.47416
G1 X137.779 Y68.172 E0.01839
G1 X126.638 Y57.032 E0.50167
G1 X126.086 Y57.022 E0.01756
G1 X137.800 Y68.735 E0.52746
G1 X137.784 Y69.261 E0.01676
G1 X125.554 Y57.031 E0.55075
G1 X125.050 Y57.069 E0.01608
G1 X137.745 Y69.764 E0.57165
G1 X137.691 Y70.251 E0.01561
G1 X124.563 Y57.123 E0.59116
G1 X124.093 Y57.195 E0.01512
G1 X137.617 Y70.718 E0.60895
G1 X137.530 Y71.173 E0.01474
G1 X123.643 Y57.286 E0.62533
G1 X123.201 Y57.386 E0.01442
G1 X137.426 Y71.611 E0.64057
G1 X137.308 Y72.034 E0.01399
G1 X122.783 Y57.509 E0.65405
G1 X122.368 Y57.636 E0.01381
G1 X137.180 Y72.448 E0.66698
G1 X137.031 Y72.841 E0.01338
G1 X121.972 Y57.781 E0.67813
G1 X121.581 Y57.932 E0.01334
G1 X136.881 Y73.232 E0.68896
G1 X136.712 Y73.604 E0.01303
G1 X121.210 Y58.103 E0.69806
G1 X120.841 Y58.275 E0.01298
G1 X136.538 Y73.972 E0.70687
G1 X136.349 Y74.324 E0.01273
G1 X120.491 Y58.466 E0.71408
G1 X120.142 Y58.659 E0.01269
G1 X136.155 Y74.672 E0.72107
M73 P2 R59
M73 Q2 S59
G1 X135.943 Y75.001 E0.01248
G1 X119.813 Y58.872 E0.72632
G1 X119.485 Y59.085 E0.01247
G1 X135.729 Y75.329 E0.73150
G1 X135.502 Y75.644 E0.01235
G1 X119.170 Y59.312 E0.73545
G1 X118.860 Y59.544 E0.01232
G1 X135.268 Y75.952 E0.73885
G1 X135.024 Y76.249 E0.01225
G1 X118.566 Y59.791 E0.74109
G1 X118.275 Y60.042 E0.01223
G1 X134.771 Y76.537 E0.74279
G1 X134.510 Y76.818 E0.01220
G1 X117.999 Y60.307 E0.74351
G1 X117.728 Y60.577 E0.01219
G1 X134.238 Y77.088 E0.74348
G1 X133.958 Y77.349 E0.01220
G1 X117.464 Y60.855 E0.74273
G1 X117.211 Y61.144 E0.01222
G1 X133.668 Y77.601 E0.74105
G1 X133.375 Y77.849 E0.01223
G1 X116.967 Y61.441 E0.73885
G1 X116.733 Y61.749 E0.01230
G1 X133.065 Y78.081 E0.73542
G1 X132.753 Y78.311 E0.01233
G1 X116.506 Y62.064 E0.73161
G1 X116.293 Y62.392 E0.01246
G1 X132.424 Y78.523 E0.72638
G1 X132.094 Y78.734 E0.01248
G1 X116.081 Y62.721 E0.72108
M73 P2 R58
G1 X115.887 Y63.069 E0.01267
G1 X131.745 Y78.927 E0.71411
G1 X131.393 Y79.117 E0.01273
G1 X115.697 Y63.421 E0.70681
G1 X115.524 Y63.789 E0.01295
G1 X131.024 Y79.289 E0.69799
M73 Q2 S58
G1 X130.654 Y79.461 E0.01298
G1 X115.355 Y64.162 E0.68895
G1 X115.204 Y64.553 E0.01334
G1 X130.263 Y79.611 E0.67810
G1 X129.870 Y79.760 E0.01338
G1 X115.056 Y64.946 E0.66710
G1 X114.928 Y65.359 E0.01379
G1 X129.455 Y79.886 E0.65414
G1 X129.032 Y80.005 E0.01398
G1 X114.809 Y65.782 E0.64044
G1 X114.706 Y66.220 E0.01433
G1 X128.591 Y80.106 E0.62527
G1 X128.142 Y80.198 E0.01461
G1 X114.618 Y66.674 E0.60900
G1 X114.542 Y67.139 E0.01502
G1 X127.673 Y80.270 E0.59128
G1 X127.185 Y80.324 E0.01562
G1 X114.493 Y67.632 E0.57154
G1 X114.451 Y68.131 E0.01596
G1 X126.682 Y80.362 E0.55077
G1 X126.149 Y80.371 E0.01696
G1 X114.440 Y68.662 E0.52727
G1 X114.454 Y69.218 E0.01770
G1 X125.598 Y80.361 E0.50181
G1 X125.022 Y80.327 E0.01837
G1 X114.491 Y69.796 E0.47419
G1 X114.563 Y70.410 E0.01968
G1 X124.402 Y80.249 E0.44304
G1 X123.737 Y80.126 E0.02153
G1 X114.688 Y71.077 E0.40748
G1 X114.858 Y71.788 E0.02327
M73 Q3 S58
G1 X123.025 Y79.955 E0.36778
M73 P3 R58
G1 X122.648 Y79.852 E0.01244
G1 X122.236 Y79.708 E0.01389
G1 X115.105 Y72.577 E0.32114
G1 X115.190 Y72.829 E0.00848
G1 X115.466 Y73.479 E0.02249
G1 X121.339 Y79.352 E0.26445
G1 X120.403 Y78.886 E0.03328
G1 X120.220 Y78.775 E0.00682
G1 X116.043 Y74.598 E0.18809
G1 X116.288 Y75.010 E0.01528
G1 X116.799 Y75.741 E0.02839
G1 X117.263 Y76.318 E0.02357
G1 X117.768 Y76.865 E0.02370
G1 X119.255 Y78.351 E0.06693
; stop printing object cap_final1.stl id:0 copy 0
M106 S84.15
;LAYER_CHANGE
;Z:0.4
;HEIGHT:0.2
;BEFORE_LAYER_CHANGE
G92 E0.0
;0.4


;WIPE_START
G1 F8640.000
G1 X117.768 Y76.865 E-0.48536
G1 X117.263 Y76.318 E-0.17186
G1 X116.984 Y75.971 E-0.10278
;WIPE_END
G1 E-0.04000 F2100.000
G1 Z0.600 F10800.000
;AFTER_LAYER_CHANGE
;0.4
M104 S210 ; set temperature
G1 X116.982 Y53.171
G1 Z0.400
G1 E0.80000 F2100.000
;TYPE:Skirt
;WIDTH:0.42
G1 F3000.000
G1 X126.093 Y53.170 E0.28568
G1 X225.358 Y58.673 E3.11716
G1 X226.995 Y58.930 E0.05196
G1 X228.526 Y59.330 E0.04960
G1 X230.081 Y59.923 E0.05220
G1 X231.469 Y60.618 E0.04865
G1 X232.894 Y61.536 E0.05315
G1 X234.107 Y62.503 E0.04865
G1 X234.951 Y63.310 E0.03661
G1 X236.007 Y64.523 E0.05041
G1 X236.909 Y65.790 E0.04877
G1 X237.460 Y66.727 E0.03411
G1 X238.373 Y68.742 E0.06936
G1 X238.989 Y70.863 E0.06924
G1 X239.180 Y71.934 E0.03410
G1 X239.321 Y73.532 E0.05029
G1 X240.990 Y177.577 E3.26269
G1 X240.903 Y179.122 E0.04851
G1 X240.654 Y180.731 E0.05103
G1 X240.090 Y182.732 E0.06519
G1 X239.428 Y184.301 E0.05339
G1 X238.651 Y185.718 E0.05068
G1 X237.431 Y187.416 E0.06555
G1 X236.276 Y188.662 E0.05327
G1 X235.092 Y189.705 E0.04948
G1 X233.253 Y190.956 E0.06972
G1 X232.294 Y191.468 E0.03411
G1 X230.807 Y192.100 E0.05065
G1 X229.338 Y192.561 E0.04829
G1 X228.272 Y192.796 E0.03422
G1 X226.043 Y193.042 E0.07031
G1 X28.877 Y194.676 E6.18220
G1 X27.274 Y194.597 E0.05034
G1 X25.217 Y194.245 E0.06543
G1 X23.590 Y193.754 E0.05327
G1 X22.116 Y193.139 E0.05008
G1 X20.662 Y192.335 E0.05208
G1 X19.325 Y191.407 E0.05103
G1 X17.768 Y190.018 E0.06543
G1 X16.659 Y188.752 E0.05280
G1 X15.757 Y187.484 E0.04877
G1 X15.203 Y186.543 E0.03422
G1 X14.278 Y184.492 E0.07055
G1 X13.940 Y183.458 E0.03410
G1 X13.575 Y181.877 E0.05089
G1 X13.377 Y180.350 E0.04829
G1 X13.330 Y179.179 E0.03673
G1 X15.244 Y67.738 E3.49467
G1 X15.546 Y65.505 E0.07067
G1 X15.808 Y64.445 E0.03422
G1 X16.330 Y62.924 E0.05041
G1 X16.974 Y61.517 E0.04853
G1 X17.510 Y60.570 E0.03411
G1 X18.774 Y58.802 E0.06817
G1 X19.927 Y57.558 E0.05315
G1 X21.117 Y56.510 E0.04972
G1 X22.482 Y55.551 E0.05232
G1 X23.861 Y54.775 E0.04960
G1 X25.396 Y54.120 E0.05232
G1 X26.906 Y53.649 E0.04960
G1 X28.539 Y53.327 E0.05220
G1 X30.092 Y53.181 E0.04889
G1 X116.922 Y53.171 E2.72250
; printing object cap_final1.stl id:0 copy 0
;WIPE_START
G1 F8640.000
G1 X120.213 Y53.171 E-0.76000
;WIPE_END
G1 E-0.04000 F2100.000
G1 Z0.800 F10800.000
G1 X119.868 Y58.079
G1 Z0.400
G1 E0.80000 F2100.000
M204 S800
;TYPE:Perimeter
;WIDTH:0.45
G1 F3600.000
