; generated by PrusaSlicer 2.3.0+win64 on 2021-02-22 at 13:03:47 UTC

; 

; external perimeters extrusion width = 0.45mm
; perimeters extrusion width = 0.45mm
; infill extrusion width = 0.45mm
; solid infill extrusion width = 0.45mm
; top infill extrusion width = 0.40mm
; first layer extrusion width = 0.42mm

M73 P0 R115
M73 Q0 S115
M201 X1000 Y1000 Z200 E5000 ; sets maximum accelerations, mm/sec^2
M203 X200 Y200 Z12 E120 ; sets maximum feedrates, mm/sec
M204 P1250 R1250 T1250 ; sets acceleration (P, T) and retract acceleration (R), mm/sec^2
M205 X8.00 Y8.00 Z0.40 E4.50 ; sets the jerk limits, mm/sec
M205 S0 T0 ; sets the minimum extruding and travel feed rate, mm/sec
M107
;TYPE:Custom
M862.3 P "MK3S" ; printer model check
M862.1 P0.4 ; nozzle diameter check
M115 U3.9.2 ; tell printer latest fw version
G90 ; use absolute coordinates
M83 ; extruder relative mode
M104 S215 ; set extruder temp
M140 S60 ; set bed temp
M190 S60 ; wait for bed temp
M109 S215 ; wait for extruder temp
G28 W ; home all without mesh bed level
G80 ; mesh bed leveling
G1 Y-3.0 F1000.0 ; go outside print area
G92 E0.0
G1 X60.0 E9.0 F1000.0 ; intro line
G1 X100.0 E12.5 F1000.0 ; intro line
G92 E0.0
M221 S95

; Don't change E values below. Excessive value can damage the printer.
M907 E430 ; set extruder motor current
G21 ; set units to millimeters
G90 ; use absolute coordinates
M83 ; use relative distances for extrusion
M900 K0.05 ; Filament gcode LA 1.5
M900 K30 ; Filament gcode LA 1.0
;LAYER_CHANGE
;Z:0.2
;HEIGHT:0.2
;BEFORE_LAYER_CHANGE
G92 E0.0
;0.2


G1 E-0.80000 F2100.000
G1 Z0.400 F10800.000
;AFTER_LAYER_CHANGE
;0.2
G1 X37.398 Y25.911
G1 Z0.200
G1 E0.80000 F2100.000
M204 S1000
;TYPE:Skirt
;WIDTH:0.42
G1 F1200.000
G1 X37.849 Y25.264 E0.02473
G1 X38.490 Y24.799 E0.02484
G1 X39.249 Y24.570 E0.02484
G1 X53.950 Y24.551 E0.46095
G1 X208.204 Y25.903 E4.83671
G1 X209.076 Y26.081 E0.02790
G1 X209.824 Y26.571 E0.02802
G1 X210.359 Y27.350 E0.02966
G1 X210.549 Y28.280 E0.02975
G1 X210.549 Y173.791 E4.56241
G1 X210.374 Y174.675 E0.02825
G1 X209.880 Y175.433 E0.02837
G1 X209.110 Y175.964 E0.02931
G1 X208.196 Y176.157 E0.02931
G1 X121.521 Y176.331 E2.71764
M73 P0 R114
G1 X39.483 Y174.805 E2.57268
G1 X38.628 Y174.621 E0.02743
G1 X37.894 Y174.137 E0.02755
G1 X37.360 Y173.361 E0.02954
G1 X37.169 Y172.439 E0.02954
G1 X37.183 Y26.674 E4.57036
G1 X37.382 Y25.969 E0.02296
; printing object google_final.stl id:0 copy 0
;WIPE_START
G1 F8640.000
G1 X37.849 Y25.264 E-0.19523
G1 X38.490 Y24.799 E-0.18296
G1 X39.249 Y24.570 E-0.18296
G1 X40.110 Y24.569 E-0.19885
;WIPE_END
G1 E-0.04000 F2100.000
G1 Z0.600 F10800.000
G1 X40.928 Y99.608
G1 Z0.200
G1 E0.80000 F2100.000
;TYPE:Perimeter
G1 F1200.000
G1 X42.976 Y99.617 E0.06421
G1 X43.431 Y99.652 E0.01432
G1 X44.347 Y99.791 E0.02903
G1 X45.190 Y99.681 E0.02665
G1 X45.724 Y99.648 E0.01679
G1 X47.766 Y99.647 E0.06401
G1 X48.303 Y99.681 E0.01686
G1 X49.146 Y99.791 E0.02665
G1 X50.061 Y99.652 E0.02903
G1 X50.515 Y99.617 E0.01429
G1 X52.564 Y99.610 E0.06424
G1 X52.564 Y105.249 E0.17679
G1 X50.516 Y105.240 E0.06421
G1 X50.061 Y105.205 E0.01432
G1 X49.146 Y105.066 E0.02903
G1 X48.303 Y105.175 E0.02665
G1 X47.767 Y105.209 E0.01684
G1 X45.726 Y105.209 E0.06399
G1 X45.190 Y105.175 E0.01684
G1 X44.347 Y105.066 E0.02665
G1 X43.431 Y105.205 E0.02903
G1 X42.976 Y105.240 E0.01432
G1 X40.928 Y105.249 E0.06421
G1 X40.928 Y99.668 E0.17499
;WIPE_START
G1 F8640.000
G1 X42.976 Y99.617 E-0.47300
G1 X43.431 Y99.652 E-0.10546
G1 X44.209 Y99.770 E-0.18155
;WIPE_END
G1 E-0.04000 F2100.000
G1 Z0.600 F10800.000
G1 X44.450 Y100.158
G1 Z0.200
G1 E0.80000 F2100.000
;TYPE:External perimeter
G1 F1200.000
G1 X45.226 Y100.057 E0.02453
G1 X45.738 Y100.025 E0.01610
G1 X46.245 Y100.019 E0.01590
G1 X47.753 Y100.025 E0.04728
G1 X48.266 Y100.057 E0.01612
G1 X49.042 Y100.158 E0.02453
G1 X49.042 Y104.699 E0.14238
G1 X48.266 Y104.800 E0.02453
G1 X47.753 Y104.832 E0.01611
G1 X46.746 Y104.838 E0.03158
G1 X45.739 Y104.832 E0.03158
G1 X45.226 Y104.800 E0.01611
G1 X44.450 Y104.699 E0.02453
G1 X44.450 Y100.218 E0.14050
G1 X44.394 Y99.762 F10800.000
;WIPE_START
G1 F8640.000
G1 X45.226 Y100.057 E-0.18295
G1 X45.738 Y100.025 E-0.11854
G1 X46.245 Y100.019 E-0.11709
G1 X47.724 Y100.024 E-0.34143
;WIPE_END
G1 E-0.04000 F2100.000
G1 Z0.600 F10800.000
G1 X49.419 Y100.218
G1 Z0.200
G1 E0.80000 F2100.000
G1 F1200.000
G1 X49.419 Y100.131 E0.00273
G1 X50.104 Y100.026 E0.02172
G1 X50.531 Y99.994 E0.01344
G1 X52.187 Y99.987 E0.05192
G1 X52.187 Y104.870 E0.15309
G1 X50.532 Y104.863 E0.05191
G1 X50.104 Y104.830 E0.01345
G1 X49.419 Y104.726 E0.02172
G1 X49.419 Y100.278 E0.13947
G1 X49.342 Y100.178 F10800.000
;WIPE_START
G1 F8640.000
G1 X49.419 Y100.131 E-0.03396
G1 X50.104 Y100.026 E-0.15993
G1 X50.531 Y99.994 E-0.09898
G1 X52.187 Y99.987 E-0.38234
G1 X52.187 Y100.355 E-0.08479
;WIPE_END
G1 E-0.04000 F2100.000
G1 Z0.600 F10800.000
G1 X44.073 Y100.278
G1 Z0.200
G1 E0.80000 F2100.000
G1 F1200.000
G1 X44.073 Y104.726 E0.13947
G1 X43.389 Y104.830 E0.02172
G1 X42.961 Y104.863 E0.01345
G1 X41.305 Y104.870 E0.05191
G1 X41.305 Y99.987 E0.15312
G1 X42.961 Y99.994 E0.05191
G1 X43.389 Y100.026 E0.01345
G1 X44.073 Y100.131 E0.02172
G1 X44.073 Y100.218 E0.00273
G1 X44.471 Y100.325 F10800.000
;WIPE_START
G1 F8640.000
G1 X44.073 Y103.509 E-0.76000
;WIPE_END
G1 E-0.04000 F2100.000
G1 Z0.600 F10800.000
G1 X40.928 Y85.249
G1 Z0.200
G1 E0.80000 F2100.000
;TYPE:Perimeter
G1 F1200.000
G1 X40.928 Y79.608 E0.17687
G1 X42.976 Y79.617 E0.06421
G1 X43.431 Y79.652 E0.01432
G1 X44.347 Y79.791 E0.02903
G1 X45.190 Y79.681 E0.02665
G1 X45.724 Y79.648 E0.01679
G1 X47.766 Y79.647 E0.06401
G1 X48.303 Y79.681 E0.01686
G1 X49.146 Y79.791 E0.02665
G1 X50.061 Y79.652 E0.02903
G1 X50.515 Y79.617 E0.01429
G1 X52.564 Y79.610 E0.06424
G1 X52.564 Y85.249 E0.17679
G1 X50.516 Y85.240 E0.06421
G1 X50.061 Y85.205 E0.01432
G1 X49.146 Y85.066 E0.02903
G1 X48.303 Y85.175 E0.02665
G1 X47.767 Y85.209 E0.01684
G1 X45.726 Y85.209 E0.06399
G1 X45.190 Y85.175 E0.01684
G1 X44.347 Y85.066 E0.02665
G1 X43.431 Y85.205 E0.02903
G1 X42.976 Y85.240 E0.01432
G1 X40.988 Y85.249 E0.06233
G1 X41.305 Y84.870 F10800.000
;TYPE:External perimeter
G1 F1200.000
G1 X41.305 Y79.987 E0.15312
G1 X42.961 Y79.994 E0.05191
G1 X43.389 Y80.026 E0.01345
G1 X44.073 Y80.131 E0.02172
G1 X44.073 Y84.726 E0.14408
M73 Q0 S114
G1 X43.389 Y84.830 E0.02172
G1 X42.961 Y84.863 E0.01345
G1 X41.365 Y84.870 E0.05003
G1 X40.905 Y84.873 F10800.000
;WIPE_START
G1 F8640.000
G1 X41.325 Y81.579 E-0.76000
;WIPE_END
G1 E-0.04000 F2100.000
G1 Z0.600 F10800.000
G1 X44.450 Y84.699
G1 Z0.200
G1 E0.80000 F2100.000
G1 F1200.000
G1 X44.450 Y80.158 E0.14238
G1 X45.226 Y80.057 E0.02453
G1 X45.738 Y80.025 E0.01610
G1 X46.245 Y80.019 E0.01590
G1 X47.753 Y80.025 E0.04728
G1 X48.266 Y80.057 E0.01612
G1 X49.042 Y80.158 E0.02453
G1 X49.042 Y84.699 E0.14238
G1 X48.266 Y84.800 E0.02453
G1 X47.753 Y84.832 E0.01611
G1 X46.746 Y84.838 E0.03158
G1 X45.739 Y84.832 E0.03158
G1 X45.226 Y84.800 E0.01611
G1 X44.510 Y84.707 E0.02265
G1 X44.050 Y84.685 F10800.000
;WIPE_START
G1 F8640.000
G1 X44.467 Y81.415 E-0.76000
;WIPE_END
G1 E-0.04000 F2100.000
G1 Z0.600 F10800.000
G1 X49.419 Y84.726
G1 Z0.200
G1 E0.80000 F2100.000
G1 F1200.000
G1 X49.419 Y80.131 E0.14408
G1 X50.104 Y80.026 E0.02172
G1 X50.531 Y79.994 E0.01344
G1 X52.187 Y79.987 E0.05192
G1 X52.187 Y84.870 E0.15309
G1 X50.532 Y84.863 E0.05191
G1 X50.104 Y84.830 E0.01345
G1 X49.478 Y84.735 E0.01984
G1 X49.019 Y84.710 F10800.000
;WIPE_START
G1 F8640.000
G1 X49.436 Y81.444 E-0.76000
;WIPE_END
G1 E-0.04000 F2100.000
G1 Z0.600 F10800.000
G1 X40.928 Y125.249
G1 Z0.200
G1 E0.80000 F2100.000
;TYPE:Perimeter
G1 F1200.000
G1 X40.928 Y119.608 E0.17687
G1 X42.976 Y119.617 E0.06421
G1 X43.431 Y119.652 E0.01432
G1 X44.347 Y119.791 E0.02903
G1 X45.190 Y119.681 E0.02665
G1 X45.724 Y119.648 E0.01679
G1 X47.766 Y119.647 E0.06401
G1 X48.303 Y119.681 E0.01686
G1 X49.146 Y119.791 E0.02665
G1 X50.061 Y119.652 E0.02903
G1 X50.515 Y119.617 E0.01429
G1 X52.564 Y119.610 E0.06424
G1 X52.564 Y125.249 E0.17679
G1 X50.516 Y125.240 E0.06421
G1 X50.061 Y125.205 E0.01432
G1 X49.146 Y125.066 E0.02903
G1 X48.303 Y125.175 E0.02665
G1 X47.767 Y125.209 E0.01684
G1 X45.726 Y125.209 E0.06399
G1 X45.190 Y125.175 E0.01684
G1 X44.347 Y125.066 E0.02665
G1 X43.431 Y125.205 E0.02903
G1 X42.976 Y125.240 E0.01432
G1 X40.988 Y125.249 E0.06233
;WIPE_START
G1 F8640.000
G1 X40.953 Y121.957 E-0.76000
;WIPE_END
G1 E-0.04000 F2100.000
G1 Z0.600 F10800.000
G1 X44.450 Y124.699
G1 Z0.200
G1 E0.80000 F2100.000
;TYPE:External perimeter
G1 F1200.000
G1 X44.450 Y120.158 E0.14238
G1 X45.226 Y120.057 E0.02453
G1 X45.738 Y120.025 E0.01610
G1 X46.245 Y120.019 E0.01590
G1 X47.753 Y120.025 E0.04728
G1 X48.266 Y120.057 E0.01612
G1 X49.042 Y120.158 E0.02453
G1 X49.042 Y124.699 E0.14238
G1 X48.266 Y124.800 E0.02453
G1 X47.753 Y124.832 E0.01611
G1 X46.746 Y124.838 E0.03158
G1 X45.739 Y124.832 E0.03158
G1 X45.226 Y124.800 E0.01611
G1 X44.510 Y124.707 E0.02265
G1 X44.050 Y124.685 F10800.000
;WIPE_START
G1 F8640.000
G1 X44.467 Y121.415 E-0.76000
;WIPE_END
G1 E-0.04000 F2100.000
G1 Z0.600 F10800.000
G1 X49.419 Y124.726
G1 Z0.200
G1 E0.80000 F2100.000
G1 F1200.000
G1 X49.419 Y120.131 E0.14408
G1 X50.104 Y120.026 E0.02172
G1 X50.531 Y119.994 E0.01344
G1 X52.187 Y119.987 E0.05192
G1 X52.187 Y124.870 E0.15309
G1 X50.532 Y124.863 E0.05191
G1 X50.104 Y124.830 E0.01345
G1 X49.478 Y124.735 E0.01984
G1 X49.019 Y124.710 F10800.000
;WIPE_START
G1 F8640.000
G1 X49.436 Y121.444 E-0.76000
;WIPE_END
G1 E-0.04000 F2100.000
G1 Z0.600 F10800.000
G1 X44.073 Y124.726
G1 Z0.200
G1 E0.80000 F2100.000
G1 F1200.000
G1 X43.389 Y124.830 E0.02172
G1 X42.961 Y124.863 E0.01345
G1 X41.305 Y124.870 E0.05191
G1 X41.305 Y119.987 E0.15312
G1 X42.961 Y119.994 E0.05191
G1 X43.389 Y120.026 E0.01345
G1 X44.073 Y120.131 E0.02172
G1 X44.073 Y124.666 E0.14220
G1 X44.133 Y125.121 F10800.000
;WIPE_START
G1 F8640.000
G1 X43.389 Y124.830 E-0.16260
G1 X42.961 Y124.863 E-0.09906
G1 X41.305 Y124.870 E-0.38227
G1 X41.305 Y124.367 E-0.11608
;WIPE_END
G1 E-0.04000 F2100.000
G1 Z0.600 F10800.000
G1 X40.928 Y145.249
G1 Z0.200
G1 E0.80000 F2100.000
;TYPE:Perimeter
G1 F1200.000
G1 X40.928 Y139.608 E0.17687
G1 X42.976 Y139.617 E0.06421
G1 X43.431 Y139.652 E0.01432
G1 X44.347 Y139.791 E0.02903
G1 X45.190 Y139.681 E0.02665
G1 X45.724 Y139.648 E0.01679
G1 X47.766 Y139.647 E0.06401
G1 X48.303 Y139.681 E0.01686
G1 X49.146 Y139.791 E0.02665
G1 X50.061 Y139.652 E0.02903
G1 X50.515 Y139.617 E0.01429
G1 X52.564 Y139.610 E0.06424
G1 X52.564 Y145.249 E0.17679
G1 X50.516 Y145.240 E0.06421
G1 X50.061 Y145.205 E0.01432
G1 X49.146 Y145.066 E0.02903
G1 X48.303 Y145.175 E0.02665
G1 X47.767 Y145.209 E0.01684
G1 X45.726 Y145.209 E0.06399
G1 X45.190 Y145.175 E0.01684
G1 X44.347 Y145.066 E0.02665
G1 X43.431 Y145.205 E0.02903
G1 X42.976 Y145.240 E0.01432
G1 X40.988 Y145.249 E0.06233
;WIPE_START
G1 F8640.000
G1 X40.953 Y141.957 E-0.76000
;WIPE_END
G1 E-0.04000 F2100.000
G1 Z0.600 F10800.000
G1 X44.450 Y144.699
G1 Z0.200
G1 E0.80000 F2100.000
;TYPE:External perimeter
G1 F1200.000
G1 X44.450 Y140.158 E0.14238
G1 X45.226 Y140.057 E0.02453
G1 X45.738 Y140.025 E0.01610
G1 X46.245 Y140.019 E0.01590
G1 X47.753 Y140.025 E0.04728
G1 X48.266 Y140.057 E0.01612
G1 X49.042 Y140.158 E0.02453
G1 X49.042 Y144.699 E0.14238
G1 X48.266 Y144.800 E0.02453
G1 X47.753 Y144.832 E0.01611
G1 X46.746 Y144.838 E0.03158
G1 X45.739 Y144.832 E0.03158
G1 X45.226 Y144.800 E0.01611
G1 X44.510 Y144.707 E0.02265
G1 X44.050 Y144.685 F10800.000
;WIPE_START
G1 F8640.000
G1 X44.467 Y141.415 E-0.76000
;WIPE_END
G1 E-0.04000 F2100.000
G1 Z0.600 F10800.000
G1 X49.419 Y144.726
G1 Z0.200
G1 E0.80000 F2100.000
G1 F1200.000
G1 X49.419 Y140.131 E0.14408
G1 X50.104 Y140.026 E0.02172
G1 X50.531 Y139.994 E0.01344
G1 X52.187 Y139.987 E0.05192
G1 X52.187 Y144.870 E0.15309
G1 X50.532 Y144.863 E0.05191
G1 X50.104 Y144.830 E0.01345
G1 X49.478 Y144.735 E0.01984
G1 X49.019 Y144.710 F10800.000
;WIPE_START
G1 F8640.000
G1 X49.436 Y141.444 E-0.76000
;WIPE_END
G1 E-0.04000 F2100.000
G1 Z0.600 F10800.000
G1 X44.073 Y144.726
G1 Z0.200
G1 E0.80000 F2100.000
G1 F1200.000
G1 X43.389 Y144.830 E0.02172
G1 X42.961 Y144.863 E0.01345
G1 X41.305 Y144.870 E0.05191
G1 X41.305 Y139.987 E0.15312
G1 X42.961 Y139.994 E0.05191
G1 X43.389 Y140.026 E0.01345
G1 X44.073 Y140.131 E0.02172
G1 X44.073 Y144.666 E0.14220
G1 X44.133 Y145.121 F10800.000
;WIPE_START
G1 F8640.000
G1 X43.389 Y144.830 E-0.16260
G1 X42.961 Y144.863 E-0.09906
G1 X41.305 Y144.870 E-0.38227
G1 X41.305 Y144.367 E-0.11608
;WIPE_END
G1 E-0.04000 F2100.000
G1 Z0.600 F10800.000
G1 X40.928 Y165.249
G1 Z0.200
G1 E0.80000 F2100.000
;TYPE:Perimeter
G1 F1200.000
G1 X40.928 Y159.608 E0.17687
G1 X42.976 Y159.617 E0.06421
G1 X43.431 Y159.652 E0.01432
G1 X44.347 Y159.791 E0.02903
G1 X45.190 Y159.681 E0.02665
G1 X45.724 Y159.648 E0.01679
G1 X47.766 Y159.647 E0.06401
G1 X48.303 Y159.681 E0.01686
G1 X49.146 Y159.791 E0.02665
G1 X50.061 Y159.652 E0.02903
G1 X50.515 Y159.617 E0.01429
G1 X52.564 Y159.610 E0.06424
G1 X52.564 Y165.249 E0.17679
G1 X50.516 Y165.240 E0.06421
G1 X50.061 Y165.205 E0.01432
G1 X49.146 Y165.066 E0.02903
G1 X48.303 Y165.175 E0.02665
G1 X47.767 Y165.209 E0.01684
G1 X45.726 Y165.209 E0.06399
G1 X45.190 Y165.175 E0.01684
G1 X44.347 Y165.066 E0.02665
G1 X43.431 Y165.205 E0.02903
G1 X42.976 Y165.240 E0.01432
G1 X40.988 Y165.249 E0.06233
;WIPE_START
G1 F8640.000
G1 X40.953 Y161.957 E-0.76000
;WIPE_END
G1 E-0.04000 F2100.000
G1 Z0.600 F10800.000
G1 X44.450 Y164.699
G1 Z0.200
G1 E0.80000 F2100.000
;TYPE:External perimeter
G1 F1200.000
G1 X44.450 Y160.158 E0.14238
G1 X45.226 Y160.057 E0.02453
G1 X45.738 Y160.025 E0.01610
G1 X46.245 Y160.019 E0.01590
G1 X47.753 Y160.025 E0.04728
G1 X48.266 Y160.057 E0.01612
G1 X49.042 Y160.158 E0.02453
G1 X49.042 Y164.699 E0.14238
G1 X48.266 Y164.800 E0.02453
G1 X47.753 Y164.832 E0.01611
G1 X46.746 Y164.838 E0.03158
G1 X45.739 Y164.832 E0.03158
G1 X45.226 Y164.800 E0.01611
G1 X44.510 Y164.707 E0.02265
G1 X44.050 Y164.685 F10800.000
;WIPE_START
G1 F8640.000
G1 X44.467 Y161.415 E-0.76000
;WIPE_END
G1 E-0.04000 F2100.000
G1 Z0.600 F10800.000
G1 X49.419 Y164.726
G1 Z0.200
G1 E0.80000 F2100.000
G1 F1200.000
G1 X49.419 Y160.131 E0.14408
G1 X50.104 Y160.026 E0.02172
G1 X50.531 Y159.994 E0.01344
G1 X52.187 Y159.987 E0.05192
M73 Q1 S114
G1 X52.187 Y164.870 E0.15309
G1 X50.532 Y164.863 E0.05191
G1 X50.104 Y164.830 E0.01345
G1 X49.478 Y164.735 E0.01984
G1 X49.019 Y164.710 F10800.000
;WIPE_START
M73 P1 R114
G1 F8640.000
G1 X49.436 Y161.444 E-0.76000
;WIPE_END
G1 E-0.04000 F2100.000
G1 Z0.600 F10800.000
G1 X44.073 Y164.726
G1 Z0.200
G1 E0.80000 F2100.000
G1 F1200.000
G1 X43.389 Y164.830 E0.02172
G1 X42.961 Y164.863 E0.01345
G1 X41.305 Y164.870 E0.05191
G1 X41.305 Y159.987 E0.15312
G1 X42.961 Y159.994 E0.05191
G1 X43.389 Y160.026 E0.01345
G1 X44.073 Y160.131 E0.02172
G1 X44.073 Y164.666 E0.14220
G1 X44.133 Y165.121 F10800.000
;WIPE_START
G1 F8640.000
G1 X43.389 Y164.830 E-0.16260
G1 X42.961 Y164.863 E-0.09906
G1 X41.305 Y164.870 E-0.38227
G1 X41.305 Y164.367 E-0.11608
;WIPE_END
G1 E-0.04000 F2100.000
G1 Z0.600 F10800.000
G1 X40.333 Y171.641
G1 Z0.200
G1 E0.80000 F2100.000
;TYPE:Perimeter
G1 F1200.000
G1 X40.333 Y27.715 E4.51269
G1 X53.159 Y27.715 E0.40215
G1 X53.159 Y171.641 E4.51269
M73 P1 R113
G1 X40.393 Y171.641 E0.40026
G1 X39.956 Y172.018 F10800.000
;TYPE:External perimeter
G1 F1200.000
G1 X39.956 Y27.338 E4.53634
G1 X53.536 Y27.338 E0.42579
G1 X53.536 Y172.018 E4.53634
G1 X40.016 Y172.018 E0.42391
G1 X39.969 Y171.619 F10800.000
;WIPE_START
G1 F8640.000
G1 X40.015 Y168.727 E-0.76000
;WIPE_END
G1 E-0.04000 F2100.000
G1 Z0.600 F10800.000
G1 X40.631 Y165.439
G1 Z0.200
G1 E0.80000 F2100.000
;TYPE:Gap fill
;WIDTH:0.260822
G1 F1200.000
G1 X40.631 Y159.418 E0.10908
;WIPE_START
G1 F8640.000
G1 X40.631 Y162.709 E-0.76000
;WIPE_END
G1 E-0.04000 F2100.000
G1 Z0.600 F10800.000
G1 X52.862 Y159.422
G1 Z0.200
G1 E0.80000 F2100.000
G1 F1200.000
G1 X52.862 Y165.439 E0.10901
G1 X53.046 Y166.337 F10800.000
;TYPE:Solid infill
;WIDTH:0.43082
G1 F1200.000
G1 X52.239 Y165.530 E0.03680
